findly-builder/apps/searchassist/src/assets/icons/sidemenu/new-icons/connectors.svg

<svg width="12" height="12" viewBox="0 0 12 12" fill="none" xmlns="http://www.w3.org/2000/svg">
<path d="M6 0C4.92773 0 4.05859 0.859375 4.01562 1.92188C2.21289 2.6875 1 4.4707 1 6.5C1 6.58594 0.996094 6.67969 1 6.78125C0.408203 7.12891 0 7.76758 0 8.5C0 9.59961 0.900391 10.5 2 10.5C2.28711 10.5 2.56445 10.4395 2.8125 10.3281C3.67969 11.0566 4.80859 11.5 6 11.5C7.19141 11.5 8.32031 11.0566 9.1875 10.3281C9.43555 10.4395 9.71289 10.5 10 10.5C11.0996 10.5 12 9.59961 12 8.5C12 7.75977 11.5879 7.11133 10.9844 6.76562C10.9922 6.68555 11 6.60352 11 6.5C11 4.4707 9.78711 2.6875 7.98438 1.92188C7.94141 0.859375 7.07227 0 6 0ZM6 1C6.55859 1 7 1.44141 7 2C7 2.55859 6.55859 3 6 3C5.44141 3 5 2.55859 5 2C5 1.44141 5.44141 1 6 1ZM4.23438 2.92188C4.57031 3.55859 5.23438 4 6 4C6.76562 4 7.42969 3.55859 7.76562 2.92188C9.10547 3.57227 10 4.93945 10 6.5C8.90039 6.5 8 7.40039 8 8.5C8 8.94727 8.1543 9.35352 8.40625 9.6875C7.73828 10.1934 6.87891 10.5 6 10.5C5.12109 10.5 4.26172 10.1934 3.59375 9.6875C3.8457 9.35352 4 8.94727 4 8.5C4 7.40039 3.09961 6.5 2 6.5C2 4.93945 2.89453 3.57227 4.23438 2.92188ZM2 7.5C2.55859 7.5 3 7.94141 3 8.5C3 9.05859 2.55859 9.5 2 9.5C1.44141 9.5 1 9.05859 1 8.5C1 7.94141 1.44141 7.5 2 7.5ZM10 7.5C10.5586 7.5 11 7.94141 11 8.5C11 9.05859 10.5586 9.5 10 9.5C9.44141 9.5 9 9.05859 9 8.5C9 7.94141 9.44141 7.5 10 7.5Z" fill="black"/>
</svg>

<svg width="12" height="12" fill="none" xmlns="http://www.w3.org/2000/svg"><path d="M6 0C4.928 0 4.059.86 4.016 1.922A4.965 4.965 0 0 0 1 6.5c0 .086-.004.18 0 .281-.592.348-1 .987-1 1.719a2.006 2.006 0 0 0 2.813 1.828A4.98 4.98 0 0 0 6 11.5a4.98 4.98 0 0 0 3.188-1.172c.248.112.525.172.812.172 1.1 0 2-.9 2-2 0-.74-.412-1.389-1.016-1.734.008-.08.016-.162.016-.266a4.965 4.965 0 0 0-3.016-4.578A1.997 1.997 0 0 0 6 0Zm0 1c.559 0 1 .441 1 1 0 .559-.441 1-1 1-.559 0-1-.441-1-1 0-.559.441-1 1-1ZM4.234 2.922C4.57 3.559 5.234 4 6 4s1.43-.441 1.766-1.078A3.968 3.968 0 0 1 10 6.5c-1.1 0-2 .9-2 2 0 .447.154.854.406 1.188A4.034 4.034 0 0 1 6 10.5a4.034 4.034 0 0 1-2.406-.813A1.96 1.96 0 0 0 4 8.5c0-1.1-.9-2-2-2a3.97 3.97 0 0 1 2.234-3.578ZM2 7.5c.559 0 1 .441 1 1 0 .559-.441 1-1 1-.559 0-1-.441-1-1 0-.559.441-1 1-1Zm8 0c.559 0 1 .441 1 1 0 .559-.441 1-1 1-.559 0-1-.441-1-1 0-.559.441-1 1-1Z" fill="#000"/></svg>
